storage/app/icons/phosphoricons/duotone/couch-duotone.svg

<svg xmlns="http://www.w3.org/2000/svg" fill="currentColor" viewBox="0 0 256 256"><path d="M240 120v48a8 8 0 0 1-8 8H24a8 8 0 0 1-8-8v-48a8 8 0 0 1 8-8V72a8 8 0 0 1 8-8h192a8 8 0 0 1 8 8v40a8 8 0 0 1 8 8" opacity=".2"/><path d="M240 106.17V72a16 16 0 0 0-16-16H32a16 16 0 0 0-16 16v34.17A16 16 0 0 0 8 120v48a16 16 0 0 0 16 16h8v16a8 8 0 0 0 16 0v-16h160v16a8 8 0 0 0 16 0v-16h8a16 16 0 0 0 16-16v-48a16 16 0 0 0-8-13.83M224 104h-8a16 16 0 0 0-16 16v16h-64V72h88ZM120 72v64H56v-16a16 16 0 0 0-16-16h-8V72Zm112 96H24v-48h16v24a8 8 0 0 0 8 8h160a8 8 0 0 0 8-8v-24h16Z"/></svg>

<svg xmlns="http://www.w3.org/2000/svg" viewBox="0 0 256 256" fill="currentColor"><path d="M240,120v48a8,8,0,0,1-8,8H24a8,8,0,0,1-8-8V120a8,8,0,0,1,8-8V72a8,8,0,0,1,8-8H224a8,8,0,0,1,8,8v40A8,8,0,0,1,240,120Z" opacity="0.2"/><path d="M240,106.17V72a16,16,0,0,0-16-16H32A16,16,0,0,0,16,72v34.17A16,16,0,0,0,8,120v48a16,16,0,0,0,16,16h8v16a8,8,0,0,0,16,0V184H208v16a8,8,0,0,0,16,0V184h8a16,16,0,0,0,16-16V120A16,16,0,0,0,240,106.17ZM224,104h-8a16,16,0,0,0-16,16v16H136V72h88ZM120,72v64H56V120a16,16,0,0,0-16-16H32V72Zm112,96H24V120H40v24a8,8,0,0,0,8,8H208a8,8,0,0,0,8-8V120h16Z"/></svg>
